X:1
T:Ormesby, 76.76.778.76
T:George Merritt, before 1890
T:Ormesby, 76.76.778.76
T:Public Domain
C:George Merritt, before 1890
Z:Public Domain
%%score ( 1 2 ) ( 3 4 )
L:1/8
M:4/4
K:Bb
V:1 treble 
V:2 treble 
V:3 bass 
V:4 bass 
V:1
 B,2 D2 F2 (GA) | B2 [Fc]2 [FB]2 [Fd]2 | [Fc]2 F2 [=EG]3 [EA] x | F4 [FA]2 (GF) | %4
 [FB]2 [B,D]2 [B,D]2 (A,G,) | [A,D]2 [CG]2 [GB]2 ([^FA]G) | G2 z A G4 x | [FB]2 F2 [Fd]3 [Ec] | %8
 [DB]2 [Fc]2 [FB]2 [G=B]2 | [Gc]2 [Fd]2 [Ee]3 [Fd] | (cB)(AG) [D^F]4 | G2 [GB]2 [Bd]3 [Fc] | %12
 [FB]2 [Fc]2 [FB]2 [FB]2 | [Af]2 B2 [Gc]3 [Fd] | [FB]8 |] %15
V:2
 B,2 D2 F2 GA | B2 x6 | x2 F2 x5 | F4 F2 x2 | x6 ^C2 | x7 G | A3 (^F2 G4) | x2 F2 x4 | x8 | x8 | %10
 G2 C2 x4 | G2 x6 | x8 | x2 B2 x4 | x8 |] %15
V:3
 B,,2 D,2 F,2 (G,A,) | B,2 [F,A,]2 [D,B,]2 [B,,B,]2 | [E,A,]2 [D,B,]2 C,2 z C x | %3
 [F,A,]4 [E,C]2 (B,A,) | [D,B,]2 [G,B,]2 [E,G,]2 [E,G,]2 | %5
 [D,^F,]2 [E,G,]2 ([E,G,][D,B,])([C,C][B,,D]) | [C,E]2 (DC) [G,B,]4 x | %7
 [D,B,]2 [F,A,]2 [B,,B,]3 [F,A,] | [G,B,]2 [A,E]2 [B,D]2 [G,D]2 | [E,C]2 [D,=B,]2 [C,C]3 [D,_B,] | %10
 [E,B,]2 [E,C]2 [D,A,]4 | ([D,B,][C,E])([B,,D][A,,C]) [G,,B,]3 [A,,C] | %12
 [B,,D]2 [F,A,]2 [D,B,]2 [B,,D]2 | [C,C]2 [D,F]2 [E,E]2 [F,E]2 | [B,,D]8 |] %15
V:4
 B,,2 D,2 F,2 G,A, | B,2 x6 | x4 B,3 C,2 | x6 E,2 | x8 | x8 | x2 D,2 x5 | x8 | x8 | x8 | x8 | x8 | %12
 x8 | x8 | x8 |] %15

